Sources/FrostedUI/Resources/Icons.xcassets/infoCircleFilled32.imageset/info-circle-filled-32.svg

<svg width="32" height="32" viewBox="0 0 32 32" fill="none" xmlns="http://www.w3.org/2000/svg" data-fui-icon="true">
  <path
    d="M16 1C24.2843 1 31 7.71573 31 16C31 24.2843 24.2843 31 16 31C7.71573 31 1 24.2843 1 16C1 7.71573 7.71573 1 16 1ZM12.75 13C12.3358 13 12 13.3358 12 13.75C12 14.1642 12.3358 14.5 12.75 14.5H14V23.5H12.75C12.3358 23.5 12 23.8358 12 24.25C12.0001 24.6642 12.3358 25 12.75 25H20.25C20.6642 25 20.9999 24.6642 21 24.25C21 23.8358 20.6642 23.5 20.25 23.5H19V13.75C19 13.3358 18.6642 13 18.25 13H12.75ZM17.5 23.5H15.5V14.5H17.5V23.5ZM16.5 7.00391C15.1193 7.00391 14.0001 8.12325 14 9.50391C14 10.8846 15.1193 12.0039 16.5 12.0039C17.8807 12.0039 19 10.8846 19 9.50391C18.9999 8.12325 17.8807 7.00391 16.5 7.00391ZM16.5 8.50391C17.0522 8.50391 17.4999 8.95168 17.5 9.50391C17.5 10.0562 17.0523 10.5039 16.5 10.5039C15.9477 10.5039 15.5 10.0562 15.5 9.50391C15.5001 8.95168 15.9478 8.50391 16.5 8.50391Z"
    fill="currentColor"
  />
</svg>

<svg xmlns="http://www.w3.org/2000/svg" width="32" height="32" fill="none" data-fui-icon="true" viewBox="0 0 32 32"><path fill="currentColor" d="M16 1c8.284 0 15 6.716 15 15s-6.716 15-15 15S1 24.284 1 16 7.716 1 16 1m-3.25 12a.75.75 0 0 0 0 1.5H14v9h-1.25a.75.75 0 0 0 0 1.5h7.5a.75.75 0 0 0 0-1.5H19v-9.75a.75.75 0 0 0-.75-.75zm4.75 10.5h-2v-9h2zm-1-16.496a2.5 2.5 0 1 0 0 5 2.5 2.5 0 0 0 0-5m0 1.5a1 1 0 1 1 0 2 1 1 0 0 1 0-2"/></svg>
